assets/imgs/apple-logo 1.svg

<svg width="24" height="23" viewBox="0 0 24 23" fill="none" xmlns="http://www.w3.org/2000/svg">
<g clip-path="url(#clip0_5003_7539)">
<path d="M16.4162 -0.0012207C16.4681 -0.0012207 16.52 -0.0012207 16.5749 -0.0012207C16.7022 1.5715 16.1019 2.74664 15.3723 3.59763C14.6564 4.44275 13.6762 5.2624 12.0907 5.13804C11.985 3.58784 12.5862 2.49986 13.3148 1.65082C13.9905 0.859566 15.2293 0.155464 16.4162 -0.0012207Z" fill="#F3F4F6"/>
<path d="M21.2155 16.3686C21.2155 16.3843 21.2155 16.398 21.2155 16.4127C20.7699 17.7621 20.1344 18.9187 19.3588 19.992C18.6507 20.9663 17.7831 22.2776 16.2339 22.2776C14.8952 22.2776 14.006 21.4168 12.6341 21.3933C11.1828 21.3698 10.3846 22.1131 9.05773 22.3001C8.90594 22.3001 8.75415 22.3001 8.6053 22.3001C7.63092 22.1591 6.84455 21.3874 6.27168 20.6921C4.58242 18.6376 3.27704 15.9838 3.03418 12.5876C3.03418 12.2547 3.03418 11.9227 3.03418 11.5897C3.137 9.15918 4.31801 7.18299 5.8878 6.22526C6.71627 5.71603 7.85517 5.28221 9.12334 5.47611C9.66684 5.56033 10.2221 5.74639 10.7088 5.93049C11.17 6.10774 11.7468 6.42209 12.2933 6.40544C12.6634 6.39467 13.0316 6.20175 13.4047 6.06563C14.4976 5.67098 15.569 5.21856 16.9811 5.43106C18.6782 5.68763 19.8827 6.44168 20.6269 7.60506C19.1913 8.51873 18.0563 9.89559 18.2502 12.2468C18.4226 14.3827 19.6643 15.6322 21.2155 16.3686Z" fill="#F3F4F6"/>
</g>
<defs>
<clipPath id="clip0_5003_7539">
<rect width="22.3011" height="22.3011" fill="white" transform="translate(0.975586)"/>
</clipPath>
</defs>
</svg>

<svg xmlns="http://www.w3.org/2000/svg" width="24" height="23" fill="none"><g fill="#F3F4F6" clip-path="url(#a)"><path d="M16.416-.001h.159c.127 1.572-.473 2.748-1.203 3.599-.716.845-1.696 1.664-3.281 1.54-.106-1.55.495-2.638 1.224-3.487C13.99.86 15.229.155 16.416-.001M21.216 16.369v.044c-.446 1.35-1.082 2.506-1.857 3.579-.708.974-1.576 2.286-3.125 2.286-1.339 0-2.228-.861-3.6-.885-1.451-.023-2.25.72-3.576.907h-.453c-.974-.14-1.76-.913-2.333-1.608-1.69-2.054-2.995-4.708-3.238-8.104v-.998c.103-2.43 1.284-4.407 2.854-5.365.828-.509 1.967-.943 3.235-.749.544.084 1.1.27 1.586.454.461.178 1.038.492 1.584.475.37-.01.739-.203 1.112-.34 1.093-.394 2.164-.846 3.576-.634 1.697.257 2.902 1.01 3.646 2.174-1.436.914-2.57 2.29-2.377 4.642.173 2.136 1.414 3.385 2.965 4.122"/></g><defs><clipPath id="a"><path fill="#fff" d="M.976 0h22.3v22.301H.977z"/></clipPath></defs></svg>
